X:356
T: DER BERGMANN IST EIN EDEL GEZIER
N: E1525
O: Europa, Mitteleuropa, Deutschland, Hessen, Hennethal; Westfalen ?
R: Staende -, Bergmanns - Lied
M: 6/8
L: 1/16
K: G
D2 | G4B2d4dg | B2B2d2G4
B2 | A2e2d2c4F2 | G6z4
D2 | G4B2d4dg | B2B2d2G4
B2 | A2e2d2c4F2 | G6z4
G2 | A4B2c4d2 | B4d2G4
B2 | A4B2c4A2 | B4d2G4
D2 | G2G2B2d2d2g2 | B2B2d2G2A2
B2 | A2e2d2c4F2 | G6z4
g2 | d6B4B2 | A2e2d2c4F2 | G6z4

